!!!COM: Franz Schubert
!!!CNT: Deutsch
!!!TXO: Deutsch
!!!OTL: "Der Ko2nig in Thule"
!!!LYR: Johann Wolfgang von Goethe
!!!OPS: Op. 5
!!!ONM: No. 5
!!!ENC: Ben Fuhrman
!!!YOR: Schubert Lieder - Dietrich Fischer-Dieskau, and Elmar Budde, eds.
!!!YOR: New York: C. F. Peters, Vol. 2
!!!ODT: 1816/
!!NB: Only vocal melody encoded.
!!NB: First instance of melodic material only encoded.
!!NB: Original Key: D minor
**kern
*clef G2
*k[f#c#]
*M2/4
!!created:08/07/06  3:35
!!proofed and posted: 08/07/06 3:35
!!edit time: 25 minutes
=
4.r
{8b
=1
4b
4b
=2
4dd
8dd
8dd
=3
2a#
=4
2b}
=5
4r
{8.b
16dd
=6
4.cc
8b
=7
(4a
12g#
12f)
12g#
=8
4f}
8r
{8b
=9
4b
4b
=10
4dd
4dd
=11
2a#
=12
2b}
=13
4r
{8.b
16dd
=14
4.cc
8b
=15
(4a
12g#
12f)
12g#
=16
4f}
8r
{8g#
=17
4g#
4g#
=18
4a
4a
=19
2b
=20
2cc}
=21
4r
{4dd
=22
4.dd
8b
=23
8a
8b
8a
8g
=24
2f}
=25
4r
{4b
=26
4.b
8g
=27
8f
8g
8f
8e
=28
8d
8e
4f}
=29
4r
{4b
=30
(4cc
qdd
qcc
8b)
8cc
=31
4dd
4cc
=32
4b}
4r
!! rest to measure 34
=34
4r
8r
{8b
=35
4b
4b
=36
4dd
4dd
=37
2a#
=38
2b}
=39
4r
{8.b
16d
=40
4.cc
8b
=41
(4a
12g#
12f)
12g#
=42
4f}
8r
{8b
=43
4b
4b
=44
4dd
4dd
=45
2a#
=46
2b}
=47
4r
{8.b
16d
=48
4.cc
8b
=49
(4a
12g#
12f)
12g#
=50
4f}
8r
{8g#
=51
4g#
4g#
=52
4a
4a
=53
2b
=54
2cc}
=55
4r
{4dd
=56
4.dd
8b
=57
8a
8b
8a
8g
=58
2f}
=59
4r
{4b
=60
4.b
8g
=61
8f
8g
8f
8e
=62
8d
8e
4f}
=63
4r
{4b
=64
(4cc
qdd
qcc
8b)
8cc
=65
4dd
4cc
=66
4b}
4r
!! rest to measure 68
=68
4r
8r
{8b
=69
4b
4b
=70
4dd
4dd
=71
2a#
=72
2b}
=73
4r
{8.b
16dd
=74
4.cc
8b
=75
(4a
12g#
12f)
12g#
=76
4f}
8r
{8b
=77
4b
4b
=78
4dd
4dd
=79
2a#
=80
2b}
=81
4r
{8.b
16dd
=82
4.cc
8b
=83
(4a
12g#
12f#)
12g#
=84
4f}
8r
{8g#
=85
4g#
4g#
=86
4a
4a
=87
2b
=88
2cc}
=89
4r
{4dd
=90
4.dd
8b
=91
8a
8b
8a
8g
=92
2f}
=93
4r
{4b
=94
4.b
8g
=95
8f
8g
8f
8e
=96
8d
8e
4f}
=97
4r
{4b
=98
(4cc
qdd
qcc)
8b
8cc
=99
4dd
4cc
=100
4b}
4r
==
*-
